Origami/64x64/apps/protonmail-desktop.svg

<svg width="64" height="64" version="1" xmlns="http://www.w3.org/2000/svg">
 <path d="M 60,33 A 28,28 0 0 1 32,61 28,28 0 0 1 4,33 28,28 0 0 1 32,5 28,28 0 0 1 60,33 Z" style="opacity:.2"/>
 <path d="M 60,32 A 28,28 0 0 1 32,60 28,28 0 0 1 4,32 28,28 0 0 1 32,4 28,28 0 0 1 60,32 Z" style="fill:#4f4f4f"/>
 <path d="m32 16c-0.81555 0-1.632987 0.03704-2.152344 0.111328-6.268773 0.896255-9.973084 3.930476-10.714844 8.775391-0.08194 0.535299-0.105981 1.48522-0.11914 5.126953l-0.013672 4.326172 0.179688 0.287109c0.448979 0.71258 1.071975 1.213361 4.023437 3.246094 4.934366 3.398411 6.961861 4.637932 8.210937 5.015625 0.197127 0.0596 0.467952 0.109595 0.603516 0.111328 0.828983 0.01108 3.251959-1.338259 6.921875-3.855469 4.576648-3.139153 5.425084-3.790346 5.871094-4.501953l0.189453-0.302734v-3.56836c0-4.653312-0.032658-5.477357-0.251953-6.474609-0.390982-1.778431-1.102187-3.184362-2.236328-4.408203-1.820408-1.964389-4.666785-3.249129-8.361328-3.777344-0.519376-0.074249-1.334843-0.111328-2.150391-0.111328zm0 6c3.999996 0 5.935833 2.357737 6.837891 5.246094 0.158809 0.508517 0.162109 0.529228 0.162109 2.597656 0 1.146847-0.01817 2.10578-0.04102 2.128906-0.02285 0.02311-3.140811 0.03215-6.958984 0.02344-3.818171 0.0086-6.93612-4.28e-4 -6.958984-0.02344-0.022826-0.02313-0.041012-0.982059-0.041012-2.128906 0-2.068428 0.0033-2.089139 0.162109-2.597656 0.902068-2.888357 2.837895-5.246094 6.837891-5.246094zm13 15.339844-0.189453 0.302734c-0.44601 0.711607-1.294446 1.3628-5.871094 4.501953-3.669916 2.51721-6.092892 3.866549-6.921875 3.855469-0.135564-0.0017-0.406389-0.05173-0.603516-0.111328-1.249076-0.377693-3.276571-1.617214-8.210937-5.015625-2.951462-2.032733-3.574459-2.533514-4.023437-3.246094l-0.175782-0.28125c6e-5 0.142365 3.35e-4 0.745847 0 0.804688-2e-4 0.01787-0.0039 0.0328-0.0039 0.05078v6.601562c0 0.06169 0.01525 0.113457 0.01758 0.173828l0.01367 3.88086 0.195312 0.359375c0.150177 0.2739 0.271305 0.398133 0.515626 0.539062l0.318359 0.185547 5.179687 0.03125c2.848697 0.0168 8.182397 0.02903 11.851563 0.02734l6.671875-0.0039 0.322266-0.134766c0.414537-0.174654 0.536351-0.279306 0.728515-0.632812l0.154297-0.289063 0.0059-3.871094c0.005331-0.091032 0.025344-0.171412 0.025344-0.265626v-6.601562c0-0.01249-0.0038-0.02272-0.0039-0.03516l0.0039-0.826168z" style="opacity:.2"/>
 <path d="m32 15c-0.81555 0-1.632987 0.037042-2.152344 0.111328-6.268773 0.896255-9.973084 3.930476-10.714844 8.775391-0.081939 0.535299-0.105981 1.48522-0.11914 5.126953l-0.013672 4.326172 0.179688 0.287109c0.448979 0.71258 1.071975 1.213361 4.023437 3.246094 4.934366 3.398411 6.961861 4.637932 8.210937 5.015625 0.197127 0.0596 0.467952 0.109595 0.603516 0.111328 0.828983 0.01108 3.251959-1.338259 6.921875-3.855469 4.576648-3.139153 5.425084-3.790346 5.871094-4.501953l0.189453-0.302734v-3.56836c0-4.653312-0.032658-5.477357-0.251953-6.474609-0.390982-1.778431-1.102187-3.184362-2.236328-4.408203-1.820408-1.964389-4.666785-3.249129-8.361328-3.777344-0.519376-0.074249-1.334843-0.111328-2.150391-0.111328zm0 6c3.999996 0 5.935833 2.357737 6.837891 5.246094 0.158809 0.508517 0.162109 0.529228 0.162109 2.597656 0 1.146847-0.018166 2.10578-0.041016 2.128906-0.02285 0.02311-3.140811 0.032148-6.958984 0.023438-3.818171 0.0086-6.93612-4.28e-4 -6.958984-0.023438-0.02283-0.02313-0.041016-0.982059-0.041016-2.128906 0-2.068428 0.003282-2.089139 0.162109-2.597656 0.902068-2.888357 2.837895-5.246094 6.837891-5.246094zm13 15.339844l-0.189453 0.302734c-0.44601 0.711607-1.294446 1.3628-5.871094 4.501953-3.669916 2.51721-6.092892 3.866549-6.921875 3.855469-0.135564-0.001733-0.406389-0.051728-0.603516-0.111328-1.249076-0.377693-3.276571-1.617214-8.210937-5.015625-2.951462-2.032733-3.574459-2.533514-4.023437-3.246094l-0.175782-0.28125c6e-5 0.142365 3.35e-4 0.745847 0 0.804688-2e-4 0.017873-0.003906 0.032801-0.003906 0.050781v6.601562c0 0.061687 0.015249 0.113457 0.017578 0.173828l0.013672 3.88086 0.195312 0.359375c0.150177 0.2739 0.271305 0.398133 0.515626 0.539062l0.318359 0.185547 5.179687 0.03125c2.848697 0.0168 8.182397 0.029034 11.851563 0.027344l6.671875-0.003906 0.322266-0.134766c0.414537-0.174654 0.536351-0.279306 0.728515-0.632812l0.154297-0.289063 0.005859-3.871094c0.005378-0.091031 0.025391-0.171411 0.025391-0.265625v-6.601562c0-0.012488-0.003809-0.022719-0.003906-0.035156l0.003906-0.826172z" style="fill:#ffffff"/>
 <path d="M 32 4 A 28 28 0 0 0 4 32 A 28 28 0 0 0 4.0214844 32.585938 A 28 28 0 0 1 32 5 A 28 28 0 0 1 59.978516 32.414062 A 28 28 0 0 0 60 32 A 28 28 0 0 0 32 4 z" style="fill:#ffffff;opacity:.1"/>
</svg>

<svg xmlns="http://www.w3.org/2000/svg" width="64" height="64" version="1">
 <path d="M 60,33 A 28,28 0 0 1 32,61 28,28 0 0 1 4,33 28,28 0 0 1 32,5 28,28 0 0 1 60,33 Z" style="opacity:0.2"/>
 <path style="fill:#4f4f4f" d="M 60,32 A 28,28 0 0 1 32,60 28,28 0 0 1 4,32 28,28 0 0 1 32,4 28,28 0 0 1 60,32 Z"/>
 <path d="m 32,16 c -0.81555,0 -1.632987,0.03704 -2.152344,0.111328 -6.268773,0.896255 -9.973084,3.930476 -10.714844,8.775391 -0.08194,0.535299 -0.105981,1.48522 -0.11914,5.126953 L 19,34.339844 l 0.179688,0.287109 c 0.448979,0.71258 1.071975,1.213361 4.023437,3.246094 4.934366,3.398411 6.961861,4.637932 8.210937,5.015625 0.197127,0.0596 0.467952,0.109595 0.603516,0.111328 0.828983,0.01108 3.251959,-1.338259 6.921875,-3.855469 4.576648,-3.139153 5.425084,-3.790346 5.871094,-4.501953 L 45,34.339844 45,30.771484 C 45,26.118172 44.967342,25.294127 44.748047,24.296875 44.357065,22.518444 43.64586,21.112513 42.511719,19.888672 40.691311,17.924283 37.844934,16.639543 34.150391,16.111328 33.631015,16.037079 32.815548,16 32,16 Z m 0,6 c 3.999996,0 5.935833,2.357737 6.837891,5.246094 C 38.9967,27.754611 39,27.775322 39,29.84375 c 0,1.146847 -0.01817,2.10578 -0.04102,2.128906 -0.02285,0.02311 -3.140811,0.03215 -6.958984,0.02344 -3.818171,0.0086 -6.93612,-4.28e-4 -6.958984,-0.02344 C 25.018186,31.949526 25,30.990597 25,29.84375 c 0,-2.068428 0.0033,-2.089139 0.162109,-2.597656 C 26.064177,24.357737 28.000004,22 32,22 Z m 13,15.339844 -0.189453,0.302734 c -0.44601,0.711607 -1.294446,1.3628 -5.871094,4.501953 -3.669916,2.51721 -6.092892,3.866549 -6.921875,3.855469 -0.135564,-0.0017 -0.406389,-0.05173 -0.603516,-0.111328 -1.249076,-0.377693 -3.276571,-1.617214 -8.210937,-5.015625 -2.951462,-2.032733 -3.574459,-2.533514 -4.023437,-3.246094 l -0.175782,-0.28125 c 6e-5,0.142365 3.35e-4,0.745847 0,0.804688 -2e-4,0.01787 -0.0039,0.0328 -0.0039,0.05078 l 0,6.601562 c 0,0.06169 0.01525,0.113457 0.01758,0.173828 l 0.01367,3.88086 0.195312,0.359375 c 0.150177,0.2739 0.271305,0.398133 0.515626,0.539062 l 0.318359,0.185547 5.179687,0.03125 c 2.848697,0.0168 8.182397,0.02903 11.851563,0.02734 l 6.671875,-0.0039 0.322266,-0.134766 c 0.414537,-0.174654 0.536351,-0.279306 0.728515,-0.632812 l 0.154297,-0.289063 0.0059,-3.871094 C 44.979987,44.977328 45,44.896948 45,44.802734 l 0,-6.601562 c 0,-0.01249 -0.0038,-0.02272 -0.0039,-0.03516 L 45,37.339844 Z" style="opacity:0.2"/>
 <path style="fill:#ffffff" d="M 32 15 C 31.18445 15 30.367013 15.037042 29.847656 15.111328 C 23.578883 16.007583 19.874572 19.041804 19.132812 23.886719 C 19.050873 24.422018 19.026831 25.371939 19.013672 29.013672 L 19 33.339844 L 19.179688 33.626953 C 19.628667 34.339533 20.251663 34.840314 23.203125 36.873047 C 28.137491 40.271458 30.164986 41.510979 31.414062 41.888672 C 31.611189 41.948272 31.882014 41.998267 32.017578 42 C 32.846561 42.01108 35.269537 40.661741 38.939453 38.144531 C 43.516101 35.005378 44.364537 34.354185 44.810547 33.642578 L 45 33.339844 L 45 29.771484 C 45 25.118172 44.967342 24.294127 44.748047 23.296875 C 44.357065 21.518444 43.64586 20.112513 42.511719 18.888672 C 40.691311 16.924283 37.844934 15.639543 34.150391 15.111328 C 33.631015 15.037079 32.815548 15 32 15 z M 32 21 C 35.999996 21 37.935833 23.357737 38.837891 26.246094 C 38.9967 26.754611 39 26.775322 39 28.84375 C 39 29.990597 38.981834 30.94953 38.958984 30.972656 C 38.936134 30.995766 35.818173 31.004804 32 30.996094 C 28.181829 31.004694 25.06388 30.995666 25.041016 30.972656 C 25.018186 30.949526 25 29.990597 25 28.84375 C 25 26.775322 25.003282 26.754611 25.162109 26.246094 C 26.064177 23.357737 28.000004 21 32 21 z M 45 36.339844 L 44.810547 36.642578 C 44.364537 37.354185 43.516101 38.005378 38.939453 41.144531 C 35.269537 43.661741 32.846561 45.01108 32.017578 45 C 31.882014 44.998267 31.611189 44.948272 31.414062 44.888672 C 30.164986 44.510979 28.137491 43.271458 23.203125 39.873047 C 20.251663 37.840314 19.628666 37.339533 19.179688 36.626953 L 19.003906 36.345703 C 19.003966 36.488068 19.004241 37.09155 19.003906 37.150391 C 19.003706 37.168264 19 37.183192 19 37.201172 L 19 43.802734 C 19 43.864421 19.015249 43.916191 19.017578 43.976562 L 19.03125 47.857422 L 19.226562 48.216797 C 19.376739 48.490697 19.497867 48.61493 19.742188 48.755859 L 20.060547 48.941406 L 25.240234 48.972656 C 28.088931 48.989456 33.422631 49.00169 37.091797 49 L 43.763672 48.996094 L 44.085938 48.861328 C 44.500475 48.686674 44.622289 48.582022 44.814453 48.228516 L 44.96875 47.939453 L 44.974609 44.068359 C 44.979987 43.977328 45 43.896948 45 43.802734 L 45 37.201172 C 45 37.188684 44.996191 37.178453 44.996094 37.166016 L 45 36.339844 z"/>
 <path style="fill:#ffffff;opacity:0.1" d="M 32 4 A 28 28 0 0 0 4 32 A 28 28 0 0 0 4.0214844 32.585938 A 28 28 0 0 1 32 5 A 28 28 0 0 1 59.978516 32.414062 A 28 28 0 0 0 60 32 A 28 28 0 0 0 32 4 z"/>
</svg>
